!!!OTL@@DE: Der Schweizer
!!!COM: Silcher, Friedrich
!!!ODT: 1835
!!!OMD: M&auml;ssig
!!!ONB: Volkslied aus: "Des Knaben Wunderhorn"
!!!LDT: 1806
!!!OCL: Erk, Ludwig
!!!GCO: Deutscher Liederschatz, Band 1
**kern	**kern	**kern
*staff3	*staff2	*staff1
*Ipiano	*Ipiano	*Ivox
*clefF4	*clefG2	*clefG2
*k[b-e-a-]	*k[b-e-a-]	*k[b-e-a-]
*E-:	*E-:	*E-:
*met(C)	*met(C)	*met(C)
*M4/4	*M4/4	*M4/4
*MM72	*MM72	*MM72
4E-\	4G/ 4e-/	4e-/
=1	=1	=1
(4EE-/	4B-/ 4e-/ 4g/	4g/
4GG/	4B-/ 4e-/ 4g/	4g/
4BB-/	4B-/ 4e-/ 4g/	4g/
4E-\)	4B-/ 4e-/ 4g/	4g/
=2	=2	=2
2BB-/	4B-/ 4d/ 4f/	2f/
.	(4B-/	.
4r	4d/	4r
[4B-\	4d/) 4f/	4f/
=3	=3	=3
4BB-\ 4B-\]	4d/ 4a-/	4a-/
4F\ 4B-\	4d/ 4a-/	4a-/
*	*^	*
4D\ 4B-\	(8a-/L	4f\	8a-/L
.	8cc/	.	8cc/J
4BB-\ 4F\	8b-/	4d\	8b-/L
.	8a-/J)	.	8a-/J
*	*v	*v	*
=4	=4	=4
(4E-\	2e-/ 2g/	2g/
4B-\	.	.
4G\	4r	8r
.	.	8g/
4E-\)	8e-/ 8g/L	8g/
.	8f/ 8a-/J	8a-/
=5	=5	=5
4E-\	4g/ 4b-/	8b-/
.	.	8b-/
4E-\ 4B-\	8f/ 8a-/L	8a-/
.	8e-/ 8g/J	8g/
4A-\ 4c\	4e-/ 4a-/ 4ee-/	4ee-\
4A-\	4e-/ 4a-/ 4cc/	4cc\
=6	=6	=6
*^	*^	*
(4.A-/	2E-\	(4.cc/	2e-\	(4.cc\
8G/)	.	8b-/)	.	8b-\)
4G/	4E-\	4b-/	4e-\	4b-\
4B-/	4E-\	4g/	4e-\	4g/
*v	*v	*	*	*
*	*v	*v	*
=7	=7	=7
4BB-\ 4B-\	8.e-/ 8.g/L	8.g/
.	16d/ 16f/Jk	16f/
4BB-\ 4B-\	8d/ 8f/L	8f/
.	8d/ 8f/J	8f/
4BB-\ 4B-\	(8d/ 8f/L	8f/
.	8a-/) 8cc/J	8cc/
4D\ 4B-\	(8g/ 8b-/L	8b-/
.	8f/) 8a-/J	8a-/
=8	=8	=8
*^	*	*
[2B-/	4E-\	4.f/ (4.a-/	(4.a-/
.	4BB-\	.	.
.	.	&(8e-/&) 8g/)	8g/)
4B-/]	4E-\	4e-/ 4g/	4g/
4ryy	4r	(8e-/L	8e-/L
.	.	8g/J)	8g/J
=9	=9	=9	=9
*	*	*^	*
4r	2BB-\	2b-/	(4g\	2b-\
4G/	.	.	2e-\	.
2F/	2BB-\	2a-/	.	2a-/
.	.	.	4d\)	.
*v	*v	*	*	*
*	*v	*v	*
=10	=10	=10
2EE-/ 2E-/	2B-/ 2e-/ 2g/	2g/
4r	4r	4r
==	==	==
*-	*-	*-
!!!ENC: Craig Stuart Sapp
!!!END: 2004/06/28/
!!!EFL: 168/651
